!!!!SEGMENT: pl-kk--kk-i-2--017_jacotin--magnificat-quarti-toni.krn
!!!cenid: 16xx:1630
!!!COM: Jacotin
!!!COM-rismID:
!!!CDT: ~1473-1555
!!!CNT: French-Flemish
!!!OTL: [Magnificat] Quarti Toni
!!!PDT:
!!!AGN: Sacred
!!!SMS-siglum: PL-Kk
!!!SMS-shelfmark: Kk.I.2
!!!SMS-shelfwork: 017 W
!!!NIFC-rismSourceID: 300258033
!!!NIFC-islandoraID: pl-kk:750
!!!URL-pdf-islandora: https://repozytorium.nifc.pl/islandora/object/pl-kk%3A750/datastream/PDF/view
!!!URL-scan: https://polish.musicsources.pl/pl/lokalizacje/galeria/rekopisy/5828 @EN{Scan on Polish Music Herritage in Open Access Website} @PL{Skany w portalu Dziedzictwo Muzyki Polskiej w otwartym dostępie}
!!!ONB-nifc: skany: C: 0040-0041; A: 0142-0143; T: 0245-0246; B: 0344-0345;
!!!AIN: 1 alto 1 bass 2 tenor
!!!key: e:phr
**kern	**text	**kern	**text	**kern	**text	**kern	**text
*part4	*part4	*part3	*part3	*part2	*part2	*part1	*part1
*staff4	*staff4	*staff3	*staff3	*staff2	*staff2	*staff1	*staff1
*I"BASVS	*	*I"TENOR	*	*I"ALTVS	*	*I"DISCANTVS	*
*I'B	*	*I'T	*	*I'A	*	*I'S	*
*Ibass	*	*Itenor	*	*Itenor	*	*Ialto	*
*ICvox	*	*ICvox	*	*ICvox	*	*ICvox	*
*clefF4	*	*clefC4	*	*clefC3	*	*clefC1	*
*k[]	*	*k[]	*	*k[]	*	*k[]	*
*e:phr	*	*e:phr	*	*e:phr	*	*e:phr	*
*M2/1	*	*M2/1	*	*M2/1	*	*M2/1	*
*met(C|)	*	*met(C|)	*	*met(C|)	*	*met(C|)	*
=1-	=1-	=1-	=1-	=1-	=1-	=1-	=1-
!!LO:TX:t=P:problem:all\middle:global
1.A	Et	1r	.	00r	.	0a	Et
.	.	1.A	Et	.	.	.	.
2G/	.	.	.	.	.	.	.
=2-	=2-	=2-	=2-	=2-	=2-	=2-	=2-
2F/	.	.	.	.	.	1a	e-
2E/	e-	2G/	e-	.	.	.	.
2D/	-xul-	2F/	-xul-	.	.	1a	-xul-
1A\	-ta-	2E/	-ta-	.	.	.	.
=3-	=3-	=3-	=3-	=3-	=3-	=3-	=3-
.	.	2D/	-uit	0r	.	0a	-ta-
2G\	-uit	2.d\	.	.	.	.	.
1F	.	.	.	.	.	.	.
.	.	4c\	.	.	.	.	.
.	.	2A/	.	.	.	.	.
=4-	=4-	=4-	=4-	=4-	=4-	=4-	=4-
0E	.	2B/	.	1.e	Et	0g	-uit
.	.	2.c/	.	.	.	.	.
.	.	8B/	.	.	.	.	.
.	.	8A/	.	.	.	.	.
.	.	2B/	.	2d/	e-	.	.
=5-	=5-	=5-	=5-	=5-	=5-	=5-	=5-
0r	.	2A/	.	2c/	-xul-	2.a/	.
.	.	2E/	.	2B/	-ta-	.	.
.	.	.	.	.	.	4g/	.
.	.	2F/	.	2A/	-uit	4a/	.
.	.	.	.	.	.	4b/	.
.	.	2.A/	.	1e\	.	2.cc\	.
=6-	=6-	=6-	=6-	=6-	=6-	=6-	=6-
1r	.	.	.	.	.	.	.
.	.	4E/	.	.	.	4b\	.
.	.	2G/	.	2d/	.	2b\	.
2r	.	1A	.	1c	.	2a\	.
1A\	ſpi-	.	.	.	.	2.e/	.
=7-	=7-	=7-	=7-	=7-	=7-	=7-	=7-
.	.	1E	.	1B	.	.	.
.	.	.	.	.	.	4f/	.
2G/	-ri-	.	.	.	.	2g/	.
2F/	-tus	2r	.	2r	.	1c	.
2E/	.	2G/	ſpi-	2e/	.	.	.
=8-	=8-	=8-	=8-	=8-	=8-	=8-	=8-
2D/	.	2A/	-ri-	2f\	ſpi-	1r	.
1A	me-	2.c\	-tus	2e\	-ri-	.	.
.	.	.	.	2f\	-tus	2r	.
.	.	4B/	.	.	.	.	.
*	*	*custos:B	*	*	*	*	*
!	!	!LO:LB:g=original	!	!	!	!	!
2G/	.	2.B/	.	2e\	me-	2g/	ſpi-
=9-	=9-	=9-	=9-	=9-	=9-	=9-	=9-
1F	.	.	.	2d/	-us	2a/	-ri-
.	.	4A/	me-	.	.	.	.
.	.	1A	-us	4c/	.	1cc	-tus
.	.	.	.	4d/	.	.	.
1E	-us	.	.	4e/	.	.	.
.	.	.	.	4f/	.	.	.
.	.	2G/	.	2g\	.	2.b/	.
=10-	=10-	=10-	=10-	=10-	=10-	=10-	=10-
0r	.	2A/	.	2f\	.	.	.
.	.	.	.	.	.	4a/	me-
.	.	2c\	.	1e	.	2.a/	-us
.	.	1B	.	.	.	.	.
.	.	.	.	.	.	8g/	.
.	.	.	.	.	.	8f/	.
.	.	.	.	2d/	.	2g/	.
*	*	*	*	*	*	*custos:a	*
=11-	=11-	=11-	=11-	=11-	=11-	=11-	=11-
!	!	!	!	!	!	!LO:LB:g=original	!
2.A\	.	2r	.	2e/	.	2a/	.
.	.	2.A/	ſpi-	2c/	.	2.f/	.
4G\	.	.	.	.	.	.	.
4F/	ſp(i)-	.	.	2A/	.	.	.
4E/	-ri-	4G/	-ri-	.	.	4g/	.
*	*	*	*	*custos:d	*	*	*
!	!	!	!	!LO:LB:g=original	!	!	!
2D/	-(tu)s	4F/	-tus	1d\	.	2.a/	.
.	.	4E/	.	.	.	.	.
=12-	=12-	=12-	=12-	=12-	=12-	=12-	=12-
2A\	me-	2D/	.	.	.	.	.
.	.	.	.	.	.	4f/	.
2G\	.	2G/	.	2B/	.	2.b-X\	.
1F	.	2A/	.	2c/	.	.	.
.	.	.	.	.	.	4a/	me-
.	.	1c\	.	2A/	.	1a\	.
*custos:E	*	*	*	*	*	*	*
=13-	=13-	=13-	=13-	=13-	=13-	=13-	=13-
!LO:LB:g=original	!	!	!	!	!	!	!
0E	.	.	.	0e	.	.	.
.	.	4B/	.	.	.	4g\	.
.	.	4A/	.	.	.	4f/	.
.	.	1B	.	.	.	1g	.
=14-	=14-	=14-	=14-	=14-	=14-	=14-	=14-
2.AA/	-us	2A/	.	1c	.	0a	-us.
.	.	2.c\	me-	.	.	.	.
4BB/	.	.	.	.	.	.	.
4C/	.	.	.	1r	.	.	.
4AA/	.	4B/	-us	.	.	.	.
2.D/	.	4A/	.	.	.	.	.
.	.	4G/	.	.	.	.	.
=15-	=15-	=15-	=15-	=15-	=15-	=15-	=15-
.	.	4F/	.	1.d	In	00r	.
4C/	.	4E/	.	.	.	.	.
4D/	.	2.A/	.	.	.	.	.
4E/	.	.	.	.	.	.	.
2F\	.	.	.	.	.	.	.
.	.	4F/	.	.	.	.	.
2.G\	.	2.B-X/	.	2d/	de-	.	.
=16-	=16-	=16-	=16-	=16-	=16-	=16-	=16-
.	.	.	.	2d/	-o	.	.
4F\	.	4A/	.	.	.	.	.
4E/	.	1A	.	2d/	ſa-	.	.
4D/	.	.	.	.	.	.	.
1E	.	.	.	1c	-lu-	.	.
.	.	2G/	.	.	.	.	.
=17-	=17-	=17-	=17-	=17-	=17-	=17-	=17-
1D	.	2A/	.	1d	-ta-	1r	.
*	*	*custos:D	*	*	*	*	*
!	!	!LO:LB:g=original	!	!	!	!	!
.	.	2.D/	.	.	.	.	.
1r	.	.	.	2.f\	-ri	1.a	In
.	.	4E/	.	.	.	.	.
.	.	4F/	.	.	.	.	.
.	.	4G/	.	4e\	.	.	.
=18-	=18-	=18-	=18-	=18-	=18-	=18-	=18-
0r	.	2F/	.	4d\	.	.	.
.	.	.	.	4c\	.	.	.
.	.	2D/	.	2.d\	.	2a/	de-
.	.	1F	.	.	.	2a/	-o
.	.	.	.	4c/	me-	.	.
.	.	.	.	4B/	-o	2a/	ſa-
.	.	.	.	4A/	.	.	.
=19-	=19-	=19-	=19-	=19-	=19-	=19-	=19-
2r	.	1E	.	1B	.	1g	-lu-
2E/	in	.	.	.	.	.	.
2F\	De-	1r	.	2A/	.	1a	-ta-
2D/	-o	.	.	2.d/	.	.	.
=20-	=20-	=20-	=20-	=20-	=20-	=20-	=20-
2.A\	.	0r	.	.	.	2.cc\	-ri
.	.	.	.	4c/	.	.	.
.	.	.	.	2c/	.	.	.
4G\	ſa-	.	.	.	.	4bny\	.
4F\	-lu-	.	.	2d/	.	4a/	.
4E\	.	.	.	.	.	4g/	.
1D\	-ta-	.	.	2.f\	.	2.a/	.
=21-	=21-	=21-	=21-	=21-	=21-	=21-	=21-
.	.	1.A	In	.	.	.	.
.	.	.	.	4e\	ſa-	4g/	me-
2C/	-ri	.	.	2.e\	-lu-	4f/	.
.	.	.	.	.	.	4e/	-o
1D	.	.	.	.	.	1f	.
.	.	.	.	4d\	-ta-	.	.
.	.	2A/	de-	2.d/	-ri	.	.
=22-	=22-	=22-	=22-	=22-	=22-	=22-	=22-
4AA/	.	2A/	-o	.	.	1e	ſa-
4BB/	me-	.	.	4c/	.	.	.
4C/	.	2A/	ſa-	2c/	me-	.	.
4D/	.	.	.	.	.	.	.
4E\	.	1G	-lu-	1B	.	1e	-lu-
4F\	.	.	.	.	.	.	.
4G\	.	.	.	.	.	.	.
4E\	.	.	.	.	.	.	.
*custos:F	*	*	*	*custos:A	*	*	*
=23-	=23-	=23-	=23-	=23-	=23-	=23-	=23-
!LO:LB:g=original	!	!	!	!LO:LB:g=original	!	!	!
1F	.	1A	-ta-	2A/	-o	2.c/	-ta-
.	.	.	.	2.c/	ſa-	.	.
.	.	.	.	.	.	4d/	-ri
2E/	.	1.c	-ri	.	.	4e/	.
.	.	.	.	4d/	-lu-	4f/	.
*	*	*	*	*	*	*custos:g	*
!	!	!	!	!	!	!LO:LB:g=original	!
1C/	.	.	.	2e\	.	2.g/	.
=24-	=24-	=24-	=24-	=24-	=24-	=24-	=24-
.	.	.	.	2e\	.	.	.
.	.	.	.	.	.	4e/	.
2D/	.	4Bny/	.	2d\	-ta-	2f/	.
.	.	4A/	.	.	.	.	.
2E/	.	2G/	.	2c/	-ri	2e/	.
1D\	.	2.A/	me-	2d/	.	2.f/	me-
=25-	=25-	=25-	=25-	=25-	=25-	=25-	=25-
.	.	.	.	2B/	me-	.	.
.	.	4G/	.	.	.	4e/	.
2C/	-o	4F/	.	2c/	.	1e	.
.	.	4E/	.	.	.	.	.
1D	.	1F	.	1A	.	.	.
.	.	.	.	.	.	2d/	.
=26-	=26-	=26-	=26-	=26-	=26-	=26-	=26-
0AA/l	.	0E/l	-o	0A\l	-o	0e\l	-o
=27||	=27||	=27||	=27||	=27||	=27||	=27||	=27||
0A	Qui-	00r	.	00r	.	00r	.
=28-	=28-	=28-	=28-	=28-	=28-	=28-	=28-
1A	-a	.	.	.	.	.	.
1G	.	.	.	.	.	.	.
=29-	=29-	=29-	=29-	=29-	=29-	=29-	=29-
2.A\	fae-	00r	.	0A	Qui-	00r	.
4G\	-cit	.	.	.	.	.	.
4F\	.	.	.	.	.	.	.
4E\	.	.	.	.	.	.	.
2.D/	.	.	.	.	.	.	.
=30-	=30-	=30-	=30-	=30-	=30-	=30-	=30-
.	.	.	.	1A	-a	.	.
4C/	.	.	.	.	.	.	.
4BB/	.	.	.	.	.	.	.
4AA/	.	.	.	.	.	.	.
2BB/	.	.	.	1G	.	.	.
2.C/	.	.	.	.	.	.	.
=31-	=31-	=31-	=31-	=31-	=31-	=31-	=31-
*	*	*	*	*lig	*	*	*
.	.	00r	.	1A	fae-	0a	Qui-
4AA/	.	.	.	.	.	.	.
2.D/	.	.	.	.	.	.	.
.	.	.	.	1d	.	.	.
4E/	.	.	.	.	.	.	.
4F\	.	.	.	.	.	.	.
4G\	.	.	.	.	.	.	.
*	*	*	*	*Xlig	*	*	*
=32-	=32-	=32-	=32-	=32-	=32-	=32-	=32-
2A\	.	.	.	2c/	-cit	1a	-a
2F\	.	.	.	4B/	.	.	.
.	.	.	.	4A/	.	.	.
1E	.	.	.	2B/	.	1g	fae-
.	.	.	.	2.c/	.	.	.
=33-	=33-	=33-	=33-	=33-	=33-	=33-	=33-
*lig	*	*	*	*	*	*	*
1AA	.	0A	Qui-	.	.	0a	-cit
.	.	.	.	4B/	.	.	.
.	.	.	.	4A/	.	.	.
.	.	.	.	4G/	.	.	.
1D	.	.	.	4F/	.	.	.
.	.	.	.	4E/	.	.	.
.	.	.	.	2.F/	.	.	.
*Xlig	*	*	*	*	*	*	*
*custos:C	*	*	*	*	*	*	*
=34-	=34-	=34-	=34-	=34-	=34-	=34-	=34-
!LO:LB:g=original	!	!	!	!	!	!	!
2.C/	.	1A	-a	.	.	1r	.
.	.	.	.	4E/	.	.	.
.	.	.	.	1E	.	.	.
8BB/	.	.	.	.	.	.	.
8AA/	.	.	.	.	.	.	.
1BB	.	1G	fae-	.	.	2r	.
.	.	.	.	2D/	.	2.dd\	.
=35-	=35-	=35-	=35-	=35-	=35-	=35-	=35-
*	*	*lig	*	*lig	*	*	*
1AA	.	1A	-cit	1E	.	.	.
.	.	.	.	.	.	4cc\	.
.	.	.	.	.	.	2.cc\	.
0r	.	1d	.	1G	.	.	.
.	.	.	.	.	.	4b\	.
.	.	.	.	.	.	2.b\	.
*	*	*Xlig	*	*Xlig	*	*	*
*	*	*custos:c	*	*	*	*	*
=36-	=36-	=36-	=36-	=36-	=36-	=36-	=36-
!	!	!LO:LB:g=original	!	!	!	!	!
.	.	2c\	.	1A	.	.	.
.	.	.	.	.	.	4a/	.
.	.	4B/	.	.	.	2.a/	.
.	.	4A/	.	.	.	.	.
2r	.	0B	.	2E/	.	.	.
.	.	.	.	.	.	4g/	.
2E\	mi-	.	.	2e\	.	2.g/	.
=37-	=37-	=37-	=37-	=37-	=37-	=37-	=37-
1G	-hi	.	.	2d\	.	.	.
.	.	.	.	.	.	4f/	.
*	*	*	*	*custos:g	*	*	*
!	!	!	!	!LO:LB:g=original	!	!	!
.	.	.	.	2g\	qui-	4e/	.
.	.	.	.	.	.	4d/	.
*	*	*	*	*	*	*lig	*
1A	.	2A\	.	2e\	-a	1c	.
.	.	2.c\	.	2.f\	fae-	.	.
=38-	=38-	=38-	=38-	=38-	=38-	=38-	=38-
2E\	ma-	.	.	.	.	1g	.
.	.	4B/	.	4e\	.	.	.
2G\	-gna	1B	.	1e	.	.	.
*	*	*	*	*	*	*Xlig	*
1F	.	.	.	.	.	1a	.
.	.	2A/	.	2d/	-cit	.	.
=39-	=39-	=39-	=39-	=39-	=39-	=39-	=39-
1E	.	1B	.	1.e	.	00g	.
0G	.	2r	.	.	.	.	.
.	.	2B/	mi-	4d/	.	.	.
.	.	.	.	4c/	.	.	.
=40-	=40-	=40-	=40-	=40-	=40-	=40-	=40-
.	.	1d	-hi	1B	.	.	.
2r	.	1e	.	1r	.	.	.
2E\	mi-	.	.	.	.	.	.
=41-	=41-	=41-	=41-	=41-	=41-	=41-	=41-
1G	-hi	2B/	mag-	0r	.	1r	.
.	.	2d\	.	.	.	.	.
1A	.	1c	.	.	.	2r	.
*	*	*	*	*	*	*custos:e	*
!	!	!	!	!	!	!LO:PB:g=original	!
.	.	.	.	.	.	2e/	mi-
=42-	=42-	=42-	=42-	=42-	=42-	=42-	=42-
2E\	mag-	2B\	.	1r	.	1g	-hi
2G\	.	1e	.	.	.	.	.
1F	-na	.	.	2r	.	1a	ma-
.	.	2d\	-na	2A/	mi-	.	.
=43-	=43-	=43-	=43-	=43-	=43-	=43-	=43-
1E	.	1e	.	1c	-hi	2e/	-gna
.	.	.	.	.	.	2g/	.
2r	.	0r	.	1d	ma-	2.f/	.
2D/	.	.	.	.	.	.	.
.	.	.	.	.	.	4g/	.
=44-	=44-	=44-	=44-	=44-	=44-	=44-	=44-
2F\	qui	.	.	2A/	-gna	2a/	.
2.E\	po-	.	.	2c/	.	2.g/	.
.	.	2r	.	1B	.	.	.
4F\	-tens	.	.	.	.	4f/	.
2G\	.	2B/	mi-	.	.	4d/	.
.	.	.	.	.	.	4e/	.
=45-	=45-	=45-	=45-	=45-	=45-	=45-	=45-
2D/	eſt	1d	-hi	2.A/	.	4f/	.
.	.	.	.	.	.	4g/	.
2F\	.	.	.	.	.	2.a/	.
.	.	.	.	4B/	.	.	.
2.E\	.	1e	ma-	4c/	.	.	.
.	.	.	.	4d/	.	4g/	.
.	.	.	.	2e\	.	2.g/	.
4F\	.	.	.	.	.	.	.
=46-	=46-	=46-	=46-	=46-	=46-	=46-	=46-
2G\	.	2B/	-gna	2.d\	.	.	.
.	.	.	.	.	.	4e/	.
*custos:D	*	*	*	*	*	*	*
!LO:LB:g=original	!	!	!	!	!	!	!
2D/	.	2d\	.	.	.	2a/	.
.	.	.	.	8c/	.	.	.
.	.	.	.	8B/	.	.	.
2F\	.	1c	.	2A/	.	2f/	qui
2.E\	.	.	.	1e\	.	2.g/	.
=47-	=47-	=47-	=47-	=47-	=47-	=47-	=47-
.	.	1B	.	.	.	.	.
4F\	.	.	.	.	.	4a/	po-
2G\	.	.	.	2d\	qui	4b\	-tens
.	.	.	.	.	.	4g/	.
*	*	*	*	*	*	*lig	*
1D	et	2r	.	0f	po-	1a	.
.	.	2.A/	qui	.	.	.	.
=48-	=48-	=48-	=48-	=48-	=48-	=48-	=48-
1.A	ſan-	.	.	.	.	1.cc	.
.	.	4B/	.	.	.	.	.
.	.	2c\	.	.	.	.	.
*	*	*custos:A	*	*	*	*	*
!	!	!LO:LB:g=original	!	!	!	!	!
.	.	2A/	po-	1e	-tens	.	.
*	*	*	*	*	*	*Xlig	*
2G\	-ctu(m)	2B/	.	.	.	2b\	.
=49-	=49-	=49-	=49-	=49-	=49-	=49-	=49-
1F	no-	1c	.	0f	eſt	2a\	.
.	.	.	.	.	.	2cc\	.
1D	-m(en)	1d	-tens	.	.	2b\	eſt
.	.	.	.	.	.	1a\	.
=50-	=50-	=50-	=50-	=50-	=50-	=50-	=50-
0E	e-	0B	.	1e	.	.	.
.	.	.	.	.	.	4g/	.
.	.	.	.	.	.	4f/	.
*	*	*	*	*	*	*custos:g	*
!	!	!	!	!	!	!LO:LB:g=original	!
.	.	.	.	1.e	.	1g	.
=51-	=51-	=51-	=51-	=51-	=51-	=51-	=51-
1AA	-ius	1.A	eſt	.	.	0a	.
.	.	.	.	2d/	.	.	.
*	*	*	*	*custos:c	*	*	*
!	!	!	!	!LO:LB:g=original	!	!	!
1r	.	.	.	2c/	.	.	.
.	.	2G/	.	2B/	.	.	.
=52-	=52-	=52-	=52-	=52-	=52-	=52-	=52-
*	*	*lig	*	*lig	*	*	*
2.D/	no-	0F	.	0A	.	2r	.
.	.	.	.	.	.	2.a\	et
4E/	-men	.	.	.	.	.	.
4F\	.	.	.	.	.	.	.
4G\	.	.	.	.	.	4b\	.
1A\	.	.	.	.	.	1cc\	ſan-
=53-	=53-	=53-	=53-	=53-	=53-	=53-	=53-
.	.	0E	.	0e	.	.	.
4G\	.	.	.	.	.	4b\	-ctu(m)
4F\	.	.	.	.	.	4a\	.
4G\	.	.	.	.	.	4b\	.
4F\	.	.	.	.	.	4a\	.
4E/	.	.	.	.	.	4g/	.
4D/	.	.	.	.	.	4f/	.
*	*	*Xlig	*	*Xlig	*	*	*
=54-	=54-	=54-	=54-	=54-	=54-	=54-	=54-
2C/	.	2r	.	2r	.	0e	.
2.AA/	.	2A/	et	1c	et	.	.
.	.	1A	ſan-	.	.	.	.
4BB/	.	.	.	.	.	.	.
4C/	.	.	.	2c/	ſan-	.	.
4D/	.	.	.	.	.	.	.
=55-	=55-	=55-	=55-	=55-	=55-	=55-	=55-
1E	.	1G	-ctu(m)	1B	-ctu(m)	1e	no-
2AA/	.	0A	.	2A/	no-	1.f	-m(en)
2.D/	.	.	.	2.F/	-men	.	.
=56-	=56-	=56-	=56-	=56-	=56-	=56-	=56-
.	.	.	.	.	.	.	.
4E/	.	.	.	4G/	.	.	.
4F\	.	.	.	2.A/	.	2f/	e-
4G\	.	.	.	.	.	.	.
2A\	.	0c	no-	.	.	4e/	-ius
.	.	.	.	4B/	.	4d/	.
*custos:AA	*	*	*	*	*	*	*
!LO:PB:g=original	!	!	!	!	!	!	!
2.AA/	e-	.	.	4c/	.	4c/	.
.	.	.	.	4d/	.	4B/	.
=57-	=57-	=57-	=57-	=57-	=57-	=57-	=57-
.	.	.	.	4e\	.	2A/	.
4BB/	.	.	.	4d\	.	.	.
4C/	.	.	.	2.e\	.	1a	.
4D/	.	.	.	.	.	.	.
1E	.	1B	-m(en)	.	.	.	.
.	.	.	.	4d\	e-	.	.
.	.	.	.	2B/	-ius	2g/	e-
=58-	=58-	=58-	=58-	=58-	=58-	=58-	=58-
1AA	-ius	1A	e-	1c	.	00a	.
2r	.	2D/	.	2d\	.	.	.
2.D/	.	2.A/	.	4D/	.	.	.
.	.	.	.	4E/	no-	.	.
=59-	=59-	=59-	=59-	=59-	=59-	=59-	=59-
.	.	.	.	4F/	.	.	.
4E/	no-	4G/	.	4G/	.	.	.
4F\	.	4F/	.	2A/	.	.	.
4G\	.	4E/	.	.	.	.	.
2A\	.	1F	-ius	2D/	-men	.	.
2D/	-me(n)	.	.	2d\	.	.	.
=60-	=60-	=60-	=60-	=60-	=60-	=60-	=60-
2.G\	.	00.E/l	.	1.B	e-	1.g	-ius
4F/	e-	.	.	.	.	.	.
4E/	.	.	.	.	.	.	.
4D/	.	.	.	.	.	.	.
2.C/	.	.	.	2.c/	.	2e/	.
=61-	=61-	=61-	=61-	=61-	=61-	=61-	=61-
.	.	.	.	.	.	00e	.
4D/	.	.	.	4B/	.	.	.
2E/	.	.	.	2G/	.	.	.
1AA	.	.	.	2A/	.	.	.
.	.	.	.	2c/	.	.	.
=62-	=62-	=62-	=62-	=62-	=62-	=62-	=62-
0E\l	-ius	.	.	0B\l	-ius	.	.
*	*	*	*	*custos:e	*	*	*
=63||	=63||	=63||	=63||	=63||	=63||	=63||	=63||
!	!	!	!	!LO:PB:g=original	!	!	!
00r	.	00r	.	0e	Fae-	00r	.
=64-	=64-	=64-	=64-	=64-	=64-	=64-	=64-
.	.	.	.	1d	-cit	.	.
.	.	.	.	2d/	po-	.	.
.	.	.	.	2.e/	-ten-	.	.
=65-	=65-	=65-	=65-	=65-	=65-	=65-	=65-
00r	.	0A	Fae-	.	.	00r	.
.	.	.	.	4d/	.	.	.
.	.	.	.	4c/	.	.	.
.	.	.	.	4B/	.	.	.
.	.	.	.	2c/	.	.	.
.	.	.	.	2c/	-ti-	.	.
=66-	=66-	=66-	=66-	=66-	=66-	=66-	=66-
.	.	1G	-cit	2B/	-a(m)	.	.
.	.	.	.	2.e\	.	.	.
.	.	2G/	po-	.	.	.	.
.	.	.	.	4d\	.	.	.
.	.	2.A/	-ten-	2.f\	.	.	.
=67-	=67-	=67-	=67-	=67-	=67-	=67-	=67-
00r	.	.	.	.	.	0a	Fae-
.	.	4G/	.	4e\	.	.	.
.	.	4F/	.	1e	.	.	.
.	.	4E/	.	.	.	.	.
.	.	2F/	.	.	.	.	.
*	*	*custos:F	*	*	*	*	*
!	!	!LO:PB:g=original	!	!	!	!	!
.	.	2F/	-ti-	2d/	.	.	.
=68-	=68-	=68-	=68-	=68-	=68-	=68-	=68-
.	.	2E/	-am	2e/	.	1g	-cit
.	.	2.e\	.	2.c/	.	.	.
.	.	.	.	.	.	2g/	po-
.	.	4d\	.	4B/	.	.	.
*	*	*	*	*	*	*custos:a	*
!	!	!	!	!	!	!LO:LB:g=original	!
.	.	2.f\	.	4A/	.	2.a/	-ten-
.	.	.	.	4G/	.	.	.
=69-	=69-	=69-	=69-	=69-	=69-	=69-	=69-
0r	.	.	.	2F/	.	.	.
.	.	4e\	.	.	.	4g/	.
.	.	1e	.	2c/	.	4f/	.
.	.	.	.	.	.	4e/	.
.	.	.	.	2A/	.	2f/	.
.	.	2d\	.	2B/	.	2f/	-ti-
=70-	=70-	=70-	=70-	=70-	=70-	=70-	=70-
*	*	*lig	*	*	*	*	*
0A	Fae-	1e	.	2c/	.	2e/	-a(m)
.	.	.	.	2d/	.	1cc	.
.	.	1c	.	1e	.	.	.
.	.	.	.	.	.	4b\	in
.	.	.	.	.	.	4a\	.
*	*	*Xlig	*	*	*	*	*
=71-	=71-	=71-	=71-	=71-	=71-	=71-	=71-
1G	-cit	1d	.	2r	.	2b\	.
.	.	.	.	2B/	in	1g	bra-
2G\	po-	2B/	.	2d/	bra-	.	.
2.A\	-ten-	1c\	.	2c/	-chi-	4f/	-chi-
.	.	.	.	.	.	4e/	-o
=72-	=72-	=72-	=72-	=72-	=72-	=72-	=72-
.	.	.	.	2A/	-o	2f/	.
4G\	.	.	.	.	.	.	.
*	*	*	*	*custos:c	*	*	*
!	!	!	!	!LO:LB:g=original	!	!	!
4F/	.	1A	.	2.c/	ſu-	2e/	.
4E/	.	.	.	.	.	.	.
2F/	.	.	.	.	.	2.c/	ſu-
.	.	.	.	4B/	-o	.	.
2F/	-ti-	1c\	.	1A/	.	.	.
.	.	.	.	.	.	4d/	-o
*custos:E	*	*	*	*	*	*	*
=73-	=73-	=73-	=73-	=73-	=73-	=73-	=73-
!LO:LB:g=orignal	!	!	!	!	!	!	!
0E	-a(m)	.	.	.	.	2.e/	.
.	.	4B/	in	4G/	.	.	.
.	.	4A/	bra-	4F/	.	4d/	.
.	.	2B/	-chi-	4G/	.	4e/	.
.	.	.	.	4E/	.	4f/	.
.	.	1c\	-o	1e\	.	1g\	.
=74-	=74-	=74-	=74-	=74-	=74-	=74-	=74-
1A	in	.	.	.	.	.	.
.	.	4B/	.	4d\	.	2f/	.
.	.	4A/	.	4c\	.	.	.
1G	.	2.B/	ſu-	2d\	.	1g	.
.	.	.	.	1g\	.	.	.
.	.	4c/	-o	.	.	.	.
=75-	=75-	=75-	=75-	=75-	=75-	=75-	=75-
2G\	bra-	4d/	.	.	.	1r	.
.	.	4B/	.	.	.	.	.
2.A\	-chi-	2c/	.	4f\	.	.	.
.	.	.	.	4e\	.	.	.
.	.	2A/	.	2f\	.	2r	.
4G\	-o	.	.	.	.	.	.
4F\	.	1c\	.	1e\	.	2a\	diſ-
4E\	.	.	.	.	.	.	.
=76-	=76-	=76-	=76-	=76-	=76-	=76-	=76-
1F	.	.	.	.	.	2a\	-per-
.	.	4B/	.	2d\	.	2a\	-ſit,
.	.	4A/	.	.	.	.	.
0E	ſu-	2B/	.	0e	.	2g/	.
.	.	2c/	.	.	.	2e/	ſu-
=77-	=77-	=77-	=77-	=77-	=77-	=77-	=77-
.	.	1B	.	.	.	1g	-per-
*	*	*custos:A	*	*	*	*	*
!	!	!LO:LB:g=original	!	!	!	!	!
0AA	-o	2A/	.	1c	.	2e/	-bos
*	*	*	*	*	*	*custos:a	*ij
!	!	!	!	!	!	!LO:LB:g=orignal	!
.	.	1c\	.	.	.	2.a\	diſ-
=78-	=78-	=78-	=78-	=78-	=78-	=78-	=78-
.	.	.	.	1r	.	.	.
.	.	.	.	.	.	4b\	-per-
.	.	4B/	ſu-	.	.	2cc\	-ſit,
.	.	4A/	.	.	.	.	.
0r	.	2G/	.	1d	diſ-	2b\	ſu-
.	.	2A/	.	.	.	1a\	.
=79-	=79-	=79-	=79-	=79-	=79-	=79-	=79-
.	.	1B	-o	2d\	-per-	.	.
.	.	.	.	2d\	-ſit	2g/	-per-
1A	diſ-	1r	.	2c/	.	0a	-bos
*	*	*	*	*	*	*	*Xij
.	.	.	.	2A/	ſu-	.	.
=80-	=80-	=80-	=80-	=80-	=80-	=80-	=80-
2A\	-per-	1e	diſ-	1c	-per-	.	.
2A\	-ſit	.	.	.	.	.	.
2G\	.	2e\	-per-	2B/	-bos	0r	.
2E/	.	2e\	-ſit	4G/	.	.	.
.	.	.	.	4A/	.	.	.
=81-	=81-	=81-	=81-	=81-	=81-	=81-	=81-
2.G\	ſu-	2d\	.	4B/	.	.	.
.	.	.	.	4c/	.	.	.
.	.	2B\	ſu-	4d\	.	.	.
4F\	-per-	.	.	4e\	.	.	.
2D/	-bos	2.d\	-per-	2f\	.	1a	diſ-
2E/	.	.	.	1e\	.	.	.
.	.	4c\	-bos	.	.	.	.
=82-	=82-	=82-	=82-	=82-	=82-	=82-	=82-
1F	.	2.A/	.	.	.	2a/	-per-
.	.	.	.	2d\	.	2a/	-ſit
.	.	4B/	.	.	.	.	.
*	*	*	*	*custos:e	*	*	*
!	!	!	!	!LO:LB:g=original	!	!	!
2E/	.	4c\	.	2e\	.	2g/	.
.	.	4B/	.	.	.	.	.
2.C/	.	1c\	.	4r	.	2e/	ſu-
.	.	.	.	4e\	diſ-	.	.
=83-	=83-	=83-	=83-	=83-	=83-	=83-	=83-
.	.	.	.	2e\	-per-	0g	-per-
4D/	.	.	.	.	.	.	.
4E/	.	4B/	.	2e\	-ſit	.	.
4F/	.	4A/	.	.	.	.	.
*lig	*	*	*	*	*	*	*
1G	.	1B	.	2d/	ſu-	.	.
.	.	.	.	2B/	-per-	.	.
=84-	=84-	=84-	=84-	=84-	=84-	=84-	=84-
1D	.	2r	.	1d	-bos	2.f/	-bos
.	.	2A/	diſ-	.	.	.	.
.	.	.	.	.	.	8e/	.
.	.	.	.	.	.	8d/	.
*Xlig	*	*	*	*	*	*	*
1r	.	2A/	-per-	2.c/	.	1.e	.
.	.	2A/	-ſit	.	.	.	.
.	.	.	.	8B/	.	.	.
.	.	.	.	8A/	.	.	.
=85-	=85-	=85-	=85-	=85-	=85-	=85-	=85-
*	*	*	*	*lig	*	*	*
!	!	!	!	!LO:N:vis=1	!	!	!
0r	.	2G/	ſu-	0B	.	.	.
.	.	2E/	-per-	.	.	2.g/	.
.	.	2.G/	-bos	.	.	.	.
.	.	.	.	.	.	4f/	men-
.	.	.	.	.	.	4d/	-te
.	.	4F/	.	.	.	4e/	.
=86-	=86-	=86-	=86-	=86-	=86-	=86-	=86-
!	!	!	!	!LO:N:vis=1	!	!	!
1A	diſ-	0D	.	0d	.	2f/	.
.	.	.	.	.	.	1g	cor-
2A\	-per-	.	.	.	.	.	.
2A\	-ſit	.	.	.	.	2f/	.
*custos:G	*	*	*	*Xlig	*	*	*
=87-	=87-	=87-	=87-	=87-	=87-	=87-	=87-
!LO:LB:g=original	!	!	!	!	!	!	!
2G\	ſu-	2r	.	2r	.	1g	-dis
*	*	*custos:G	*	*	*	*	*
!	!	!LO:LB:g=original	!	!	!	!	!
2E\	-per-	2.G/	men-	2.B/	men-	.	.
2.G\	-bos	.	.	.	.	2.d/	.
.	.	4A/	-te	4c/	-te	.	.
.	.	4B\	.	2.d/	.	.	.
4F\	.	4c\	.	.	.	4e/	ſu-
=88-	=88-	=88-	=88-	=88-	=88-	=88-	=88-
2D/	.	2.d\	.	.	.	4f/	-j
.	.	.	.	4c/	.	4g/	.
1F	me(n)-	.	.	4A/	.	1a	.
.	.	4c\	.	4B/	.	.	.
.	.	2A/	cor-	4c/	.	.	.
.	.	.	.	4d/	.	.	.
2E/	-te	1c\	-dis	1e\	cor-	2.g/	.
=89-	=89-	=89-	=89-	=89-	=89-	=89-	=89-
2C/	.	.	.	.	.	.	.
.	.	.	.	.	.	4e/	.
*	*	*	*	*	*	*custos:f	*
!	!	!	!	!	!	!LO:LB:g=original	!
2D/	cor-	4B/	.	2d/	.	2f/	.
.	.	4A/	.	.	.	.	.
2E/	-dis	2G/	.	2B/	-diſ	2e/	.
2AA/	.	2.A/	.	2c/	.	2.f/	cor-
=90-	=90-	=90-	=90-	=90-	=90-	=90-	=90-
2D/	ſu-	.	.	0.A'	ſu-	.	.
.	.	4G/	ſu-	.	.	4e/	-d(is)
2C/	.	4F/	.	.	.	1e	ſu-
.	.	4E/	.	.	.	.	.
1D	.	1F	-j	.	.	.	.
.	.	.	.	.	.	2d/	-j
=91-	=91-	=91-	=91-	=91-	=91-	=91-	=91-
*lig	*	*	*	*	*	*	*
0AA	-i	00E/l	.	.	.	00e\	.
.	.	.	.	1c	-j	.	.
=92-	=92-	=92-	=92-	=92-	=92-	=92-	=92-
0E\l	.	.	.	0B\l	.	.	.
*Xlig	*	*	*	*	*	*	*
=93||	=93||	=93||	=93||	=93||	=93||	=93||	=93||
!LO:TX:t=a 3.	!	!LO:TX:a:t=Eſurientes\npauſant.	!	!	!	!LO:TX:t=à 3.	!
0E	E-	0ryy	.	00r	.	00r	.
=94-	=94-	=94-	=94-	=94-	=94-	=94-	=94-
1G	-ſu-	0ryy	.	.	.	.	.
1A	-ri-	.	.	.	.	.	.
=95-	=95-	=95-	=95-	=95-	=95-	=95-	=95-
2E/	-en-	0ryy	.	0B	E-	00r	.
1G	-tes	.	.	.	.	.	.
4F\	.	.	.	.	.	.	.
4E\	.	.	.	.	.	.	.
=96-	=96-	=96-	=96-	=96-	=96-	=96-	=96-
1F	.	0ryy	.	1d	-ſu-	.	.
2E\	.	.	.	1e	-ri-	.	.
2.A\	.	.	.	.	.	.	.
*	*	*	*	*custos:B	*	*	*
=97-	=97-	=97-	=97-	=97-	=97-	=97-	=97-
!	!	!	!	!LO:LB:g=original	!	!	!
.	.	0ryy	.	2B/	-en-	1r	.
4G\	.	.	.	.	.	.	.
2G\	.	.	.	1d	-tes	.	.
0A	.	.	.	.	.	0e	E-
.	.	.	.	4c/	.	.	.
.	.	.	.	4B/	.	.	.
=98-	=98-	=98-	=98-	=98-	=98-	=98-	=98-
.	.	0ryy	.	1c	.	.	.
2E/	.	.	.	1B	.	1g	-ſu-
2G\	.	.	.	.	.	.	.
=99-	=99-	=99-	=99-	=99-	=99-	=99-	=99-
1F	.	0ryy	.	2A/	.	1a	-ri-
.	.	.	.	2.d/	.	.	.
*custos:E	*	*	*	*	*	*	*
!LO:LB:g=original	!	!	!	!	!	!	!
*clefF3	*	*	*	*	*	*	*
1E	im-	.	.	.	.	2e/	-en-
.	.	.	.	4c/	.	.	.
.	.	.	.	2c/	.	1g\	-tes
=100-	=100-	=100-	=100-	=100-	=100-	=100-	=100-
2r	.	0ryy	.	1d	.	.	.
2.D/	-ple-	.	.	.	.	4f/	.
.	.	.	.	.	.	4e/	.
.	.	.	.	0A	.	1f	.
4E/	-uit	.	.	.	.	.	.
4F/	.	.	.	.	.	.	.
4G/	.	.	.	.	.	.	.
=101-	=101-	=101-	=101-	=101-	=101-	=101-	=101-
4A\	.	0ryy	.	.	.	2e/	.
4B\	.	.	.	.	.	.	.
4c\	.	.	.	.	.	1a	.
4A\	.	.	.	.	.	.	.
1B	.	.	.	2r	.	.	.
.	.	.	.	2d/	im-	2g/	.
=102-	=102-	=102-	=102-	=102-	=102-	=102-	=102-
2A\	.	0ryy	.	2c/	-ple-	1a	.
2.c\	.	.	.	2.A/	-uit	.	.
.	.	.	.	.	.	0e	.
4B\	.	.	.	4B/	.	.	.
1A\	bo-	.	.	4c/	.	.	.
.	.	.	.	4d/	.	.	.
=103-	=103-	=103-	=103-	=103-	=103-	=103-	=103-
.	.	0ryy	.	4e\	.	.	.
.	.	.	.	4f\	.	.	.
2G/	-nis	.	.	4g\	.	.	.
.	.	.	.	4e\	.	.	.
2A/	.	.	.	4f\	.	2r	.
.	.	.	.	4e\	.	.	.
2F/	.	.	.	2.f\	.	2.d/	im-
=104-	=104-	=104-	=104-	=104-	=104-	=104-	=104-
1B-X	.	0ryy	.	.	.	.	.
.	.	.	.	4e\	bo-	4e/	-ple-
.	.	.	.	1d	-nis	4f/	-uit
.	.	.	.	.	.	4g/	.
1A	.	.	.	.	.	4a\	.
.	.	.	.	.	.	4b\	.
.	.	.	.	2c/	.	4cc\	.
.	.	.	.	.	.	4a\	.
=105-	=105-	=105-	=105-	=105-	=105-	=105-	=105-
2.G/	.	0ryy	.	1.d	.	1b	.
4F/	.	.	.	.	.	.	.
*	*	*	*	*	*	*custos:a	*
!	!	!	!	!	!	!LO:PB:g=original	!
2D/	.	.	.	.	.	2a/	.
2.A\	.	.	.	2c/	.	2.cc\	bo-
=106-	=106-	=106-	=106-	=106-	=106-	=106-	=106-
.	.	0ryy	.	2A/	.	.	.
4G\	bo-	.	.	.	.	4b\	.
2A\	-nis	.	.	2c/	.	1a	.
1E	.	.	.	1B	.	.	.
.	.	.	.	.	.	2g/	.
*	*	*	*	*custos:A	*	*	*
=107-	=107-	=107-	=107-	=107-	=107-	=107-	=107-
!	!	!	!	!LO:LB:g=original	!	!	!
2r	.	0ryy	.	1A	.	1a	-nis
1A	et	.	.	.	.	.	.
.	.	.	.	2r	.	1r	.
2G/	di-	.	.	1e\	et	.	.
=108-	=108-	=108-	=108-	=108-	=108-	=108-	=108-
2E/	-ui-	0ryy	.	.	.	0r	.
*custos:G	*	*	*	*	*	*	*
!LO:LB:g=original	!	!	!	!	!	!	!
*clefF4	*	*	*	*	*	*	*
2.G\	.	.	.	2d/	di-	.	.
.	.	.	.	4B/	-ui-	.	.
4F\	-tes	.	.	4c/	-tes	.	.
2D/	.	.	.	4d/	.	.	.
.	.	.	.	4B/	.	.	.
=109-	=109-	=109-	=109-	=109-	=109-	=109-	=109-
1A	.	0ryy	.	1c	.	2r	.
.	.	.	.	.	.	1a	et
1E	.	.	.	2B/	.	.	.
.	.	.	.	2.e\	.	2g/	di-
=110-	=110-	=110-	=110-	=110-	=110-	=110-	=110-
1r	.	0ryy	.	.	.	4e/	-ui-
.	.	.	.	4d\	.	4f/	-tes
.	.	.	.	4e\	.	4g/	.
.	.	.	.	4c/	.	4e/	.
2r	.	.	.	4d/	.	1f	.
.	.	.	.	4c/	.	.	.
1A\	et	.	.	4B/	.	.	.
.	.	.	.	4A/	.	.	.
=111-	=111-	=111-	=111-	=111-	=111-	=111-	=111-
.	.	0ryy	.	1B	.	2e/	.
2G\	.	.	.	.	.	2.g/	.
4E\	di-	.	.	2r	.	.	.
4F\	-ui-	.	.	.	.	4f/	.
4G\	-tes	.	.	1B/	et	1e/	.
4E\	.	.	.	.	.	.	.
=112-	=112-	=112-	=112-	=112-	=112-	=112-	=112-
1F	.	0ryy	.	.	.	.	.
.	.	.	.	2A/	di-	2d/	.
1E	.	.	.	1.B	-ui-	2e/	.
.	.	.	.	.	.	2.g/	.
=113-	=113-	=113-	=113-	=113-	=113-	=113-	=113-
2.G\	.	0ryy	.	.	.	.	.
.	.	.	.	.	.	4f/	.
.	.	.	.	2.d/	-tes	2d/	.
4F\	.	.	.	.	.	.	.
2D/	.	.	.	.	.	0a	.
.	.	.	.	4c/	.	.	.
2.A\	.	.	.	2A/	.	.	.
=114-	=114-	=114-	=114-	=114-	=114-	=114-	=114-
.	.	0ryy	.	1e	.	.	.
4G\	.	.	.	.	.	.	.
4F\	.	.	.	.	.	.	.
4E\	.	.	.	.	.	.	.
1F	.	.	.	2d\	.	1r	.
.	.	.	.	1c\	.	.	.
=115-	=115-	=115-	=115-	=115-	=115-	=115-	=115-
2.E\	.	0ryy	.	.	.	2.g/	et
.	.	.	.	2.B/	.	.	.
4F\	.	.	.	.	.	4f/	.
2G\	.	.	.	.	.	2d/	.
.	.	.	.	4c/	.	.	.
4D/	.	.	.	2d\	.	1a\	di-
4E/	.	.	.	.	.	.	.
=116-	=116-	=116-	=116-	=116-	=116-	=116-	=116-
2F/	.	0ryy	.	2A/	.	.	.
2G\	.	.	.	2B/	.	2g/	-ui-
2A\	.	.	.	2c/	.	1f	-tes
2D/	.	.	.	2d/	.	.	.
=117-	=117-	=117-	=117-	=117-	=117-	=117-	=117-
2E/	.	0ryy	.	2B/	.	00e\	.
*custos:A	*	*	*	*custos:c	*	*	*
!LO:PB:g=original	!	!	!	!LO:PB:g=original	!	!	!
1A	.	.	.	2.c/	.	.	.
.	.	.	.	4B/	.	.	.
2G\	.	.	.	2.B/	.	.	.
=118-	=118-	=118-	=118-	=118-	=118-	=118-	=118-
1A	.	0ryy	.	.	.	.	.
.	.	.	.	4A/	.	.	.
.	.	.	.	1A	.	.	.
1E	.	.	.	.	.	.	.
.	.	.	.	2G/	.	.	.
=119-	=119-	=119-	=119-	=119-	=119-	=119-	=119-
2r	.	0ryy	.	1A	.	2r	.
*	*	*	*	*	*	*custos:cc	*
!	!	!	!	!	!	!LO:LB:g=original	!
1A	di-	.	.	.	.	1cc	di-
.	.	.	.	2r	.	.	.
4G\	-mi-	.	.	2d/	di-	4b\	-mi-
4F\	.	.	.	.	.	4a\	.
=120-	=120-	=120-	=120-	=120-	=120-	=120-	=120-
2G\	-ſit	0ryy	.	1d	-mi-	2b\	-ſit
2.F\	.	.	.	.	.	2.a\	.
.	.	.	.	1c	-ſit	.	.
4G\	.	.	.	.	.	4g/	.
2A\	i-	.	.	.	.	4e/	.
.	.	.	.	.	.	4f/	.
=121-	=121-	=121-	=121-	=121-	=121-	=121-	=121-
1G	-na-	0ryy	.	1d	i-	4g/	.
.	.	.	.	.	.	4a/	.
.	.	.	.	.	.	2.b\	.
2.F\	-nes	.	.	1.f	-na-	.	.
.	.	.	.	.	.	4a\	.
.	.	.	.	.	.	1a\	.
4G\	.	.	.	.	.	.	.
=122-	=122-	=122-	=122-	=122-	=122-	=122-	=122-
0A	.	0ryy	.	.	.	.	.
.	.	.	.	4e\	-nes	1cc	i-
.	.	.	.	4d\	.	.	.
.	.	.	.	1e	.	.	.
.	.	.	.	.	.	4b/	-na-
.	.	.	.	.	.	4a/	-nes
=123-	=123-	=123-	=123-	=123-	=123-	=123-	=123-
2D/	.	0ryy	.	1.d	.	4b/	.
.	.	.	.	.	.	4a/	.
2F\	.	.	.	.	.	2a/	.
2G\	i-	.	.	.	.	2b\	.
2.A\	-na-	.	.	2c/	.	2.cc\	.
=124-	=124-	=124-	=124-	=124-	=124-	=124-	=124-
.	.	0ryy	.	1A	.	.	.
4G\	.	.	.	.	.	4b\	.
2F\	.	.	.	.	.	1a	.
1E	-nes	.	.	1B	.	.	.
.	.	.	.	.	.	2g/	.
=125-	=125-	=125-	=125-	=125-	=125-	=125-	=125-
0AA/l	.	0ryy	.	0A/l	.	0a\l	.
=126||	=126||	=126||	=126||	=126||	=126||	=126||	=126||
!LO:TX:a:t=Sicut loquutus\nobtuuit.	!	!	!	!	!	!LO:TX:a:t=Sicut loquutus\nquieſcit.	!
0ryy	.	0A	Si-	00r	.	0ryy	.
=127-	=127-	=127-	=127-	=127-	=127-	=127-	=127-
0ryy	.	2G/	-cut	.	.	0ryy	.
.	.	2.B-X/	lo-	.	.	.	.
.	.	4A/	-qu-	.	.	.	.
.	.	1A\	-u-	.	.	.	.
=128-	=128-	=128-	=128-	=128-	=128-	=128-	=128-
0ryy	.	.	.	0e	Si-	0ryy	.
.	.	2G/	-tus	.	.	.	.
.	.	2A/	.	.	.	.	.
*	*	*custos:c	*	*	*	*	*
!	!	!LO:LB:g=original	!	!	!	!	!
.	.	2c\	eſt	.	.	.	.
=129-	=129-	=129-	=129-	=129-	=129-	=129-	=129-
0ryy	.	2Bny\	.	2d/	-cut	0ryy	.
.	.	2.A/	.	2.f\	.	.	.
.	.	4G/	.	4e\	lo-	.	.
.	.	4F/	.	1e\	-qu-	.	.
.	.	4E/	.	.	.	.	.
=130-	=130-	=130-	=130-	=130-	=130-	=130-	=130-
0ryy	.	1F	.	.	.	0ryy	.
.	.	.	.	2d/	-u-	.	.
.	.	2E/	.	0e	-tus	.	.
.	.	2.A/	.	.	.	.	.
=131-	=131-	=131-	=131-	=131-	=131-	=131-	=131-
0ryy	.	.	.	.	.	0ryy	.
.	.	4G/	.	.	.	.	.
.	.	4G/	.	.	.	.	.
.	.	8F/	.	.	.	.	.
.	.	8E/	.	.	.	.	.
.	.	4D/	.	1f	eſt	.	.
.	.	4E/	.	.	.	.	.
.	.	4F/	.	.	.	.	.
.	.	4G/	.	.	.	.	.
=132-	=132-	=132-	=132-	=132-	=132-	=132-	=132-
0ryy	.	4A/	.	1e	.	0ryy	.
.	.	4B/	.	.	.	.	.
.	.	2c/	.	.	.	.	.
*	*	*	*	*custos:d	*	*	*
!	!	!	!	!LO:LB:g=original	!	!	!
.	.	2B/	.	2d/	.	.	.
.	.	1A\	.	2c/	.	.	.
=133-	=133-	=133-	=133-	=133-	=133-	=133-	=133-
0ryy	.	.	.	1B	.	0ryy	.
.	.	2G/	.	.	.	.	.
.	.	1A	.	2r	.	.	.
.	.	.	.	2.A/	lo-	.	.
=134-	=134-	=134-	=134-	=134-	=134-	=134-	=134-
0ryy	.	1r	.	.	.	0ryy	.
.	.	.	.	4B/	.	.	.
.	.	.	.	2.c/	-qu-	.	.
.	.	1A	ad	.	.	.	.
.	.	.	.	4B/	-u-	.	.
.	.	.	.	4c/	.	.	.
.	.	.	.	4d/	.	.	.
=135-	=135-	=135-	=135-	=135-	=135-	=135-	=135-
0ryy	.	1G	p(a)-	4e\	.	0ryy	.
.	.	.	.	4f\	.	.	.
.	.	.	.	2g\	.	.	.
.	.	1A	-(t)res	2f\	.	.	.
.	.	.	.	2.e\	-tus	.	.
=136-	=136-	=136-	=136-	=136-	=136-	=136-	=136-
0ryy	.	1B	n(o)-	.	.	0ryy	.
.	.	.	.	4d/	.	.	.
.	.	.	.	1d	.	.	.
.	.	1A	-(st)ros	.	.	.	.
.	.	.	.	2c/	.	.	.
=137-	=137-	=137-	=137-	=137-	=137-	=137-	=137-
0ryy	.	2r	.	1d	eſt	0ryy	.
*	*	*	*ij	*	*	*	*
.	.	1G	ad	.	.	.	.
.	.	.	.	1r	.	.	.
.	.	2F/	p(a)-	.	.	.	.
*	*	*custos:G	*	*	*	*	*
=138-	=138-	=138-	=138-	=138-	=138-	=138-	=138-
!	!	!LO:LB:g=original	!	!	!	!	!
0ryy	.	2.G/	-(t)res	0d	ad	0ryy	.
.	.	4F/	.	.	.	.	.
.	.	4D/	.	.	.	.	.
.	.	4E/	.	.	.	.	.
.	.	2.F/	.	.	.	.	.
=139-	=139-	=139-	=139-	=139-	=139-	=139-	=139-
0ryy	.	.	.	1c	p(a)-	0ryy	.
.	.	4G/	.	.	.	.	.
.	.	2A/	.	.	.	.	.
.	.	2G/	.	1d	-(t)res	.	.
.	.	2B/	.	.	.	.	.
*	*	*	*	*	*	*	*
=140-	=140-	=140-	=140-	=140-	=140-	=140-	=140-
0ryy	.	2A/	n(o)-	1e	n(o)-	0ryy	.
.	.	1G	.	.	.	.	.
.	.	.	.	1d	-(st)ros	.	.
.	.	2F/	.	.	.	.	.
=141-	=141-	=141-	=141-	=141-	=141-	=141-	=141-
0ryy	.	4G/	.	2r	.	0ryy	.
.	.	4F/	.	.	.	.	.
.	.	4E/	.	1d	ad	.	.
.	.	4D/	.	.	.	.	.
.	.	1E	-(st)ros	.	.	.	.
*	*	*	*Xij	*	*ij	*	*
.	.	.	.	2c/	p(a)-	.	.
=142-	=142-	=142-	=142-	=142-	=142-	=142-	=142-
0ryy	.	2r	.	2.d/	.	0ryy	.
.	.	1D	ad	.	.	.	.
.	.	.	.	4c/	.	.	.
.	.	.	.	4A/	.	.	.
.	.	.	.	4B/	.	.	.
.	.	2E/	.	2.c/	-(t)res	.	.
=143-	=143-	=143-	=143-	=143-	=143-	=143-	=143-
0ryy	.	2F/	pa-	.	.	0ryy	.
.	.	.	.	4d/	.	.	.
.	.	2G/	-tres	2e/	.	.	.
*	*	*	*	*custos:c	*	*	*
!	!	!	!	!LO:LB:g=original	!	!	!
.	.	2A/	.	2c/	.	.	.
.	.	2F/	.	2.d/	n(o)-	.	.
=144-	=144-	=144-	=144-	=144-	=144-	=144-	=144-
0ryy	.	2G/	.	.	.	0ryy	.
.	.	.	.	4e/	.	.	.
.	.	2.A/	.	2.f\	.	.	.
.	.	4G/	.	4e\	.	.	.
.	.	2.B/	.	4d/	.	.	.
.	.	.	.	4c/	.	.	.
=145-	=145-	=145-	=145-	=145-	=145-	=145-	=145-
0ryy	.	.	.	4d/	.	0ryy	.
.	.	4A/	no-	4c/	.	.	.
.	.	1A	.	4B/	.	.	.
.	.	.	.	4A/	.	.	.
.	.	.	.	1B	.	.	.
.	.	2G/	-ſtros	.	.	.	.
=146-	=146-	=146-	=146-	=146-	=146-	=146-	=146-
0ryy	.	1A	.	2A/	-(st)ros	0ryy	.
*	*	*	*	*	*Xij	*	*
.	.	.	.	1e	A-	.	.
.	.	2r	.	.	.	.	.
*	*	*custos:A	*	*	*	*	*
!	!	!LO:PB:g=original	!	!	!	!	!
.	.	1A\	A-	2e\	-bra-	.	.
=147-	=147-	=147-	=147-	=147-	=147-	=147-	=147-
0ryy	.	.	.	1e	-ha(m)	0ryy	.
.	.	2A/	-bra-	.	.	.	.
.	.	2.A/	-ha(m)	2r	.	.	.
.	.	.	.	2A/	et	.	.
.	.	4B/	.	.	.	.	.
=148-	=148-	=148-	=148-	=148-	=148-	=148-	=148-
0ryy	.	4c/	.	2A/	ſe-	0ryy	.
.	.	4d/	.	.	.	.	.
.	.	1c	.	2A/	-mi-	.	.
.	.	.	.	2A/	-ni	.	.
.	.	4B/	.	2A/	e-	.	.
.	.	4A/	.	.	.	.	.
=149-	=149-	=149-	=149-	=149-	=149-	=149-	=149-
0ryy	.	1B	.	1G	-ius	0ryy	.
.	.	1A	.	1A	in	.	.
=150-	=150-	=150-	=150-	=150-	=150-	=150-	=150-
0ryy	.	2r	.	2.c/	ſae-	0ryy	.
.	.	2A/	et	.	.	.	.
.	.	.	.	4B/	.	.	.
.	.	2A/	ſe-	2A/	.	.	.
.	.	2A/	-mi-	2G/	.	.	.
=151-	=151-	=151-	=151-	=151-	=151-	=151-	=151-
0ryy	.	2A/	-(ni)	1F	-cu-	0ryy	.
.	.	2A/	e-	.	.	.	.
.	.	1G	-ius	1E	-la	.	.
=152-	=152-	=152-	=152-	=152-	=152-	=152-	=152-
0ryy	.	1A	in	2r	.	0ryy	.
.	.	.	.	2e\	in	.	.
.	.	2.c/	ſae-	4e\	ſae-	.	.
.	.	.	.	4f\	.	.	.
.	.	.	.	4g\	.	.	.
.	.	4B/	.	4e\	.	.	.
*	*	*	*	*custos:f	*	*	*
=153-	=153-	=153-	=153-	=153-	=153-	=153-	=153-
!	!	!	!	!LO:LB:g=original	!	!	!
0ryy	.	2A/	.	2f\	.	0ryy	.
.	.	2G/	.	1e	.	.	.
.	.	1F	-cu-	.	.	.	.
.	.	.	.	2d/	-cu-	.	.
=154-	=154-	=154-	=154-	=154-	=154-	=154-	=154-
0ryy	.	0E/l	-la	0e\l	-la	0ryy	.
=155||	=155||	=155||	=155||	=155||	=155||	=155||	=155||
!LO:LB:g=original	!	!	!	!	!	!	!
!LO:TX:t=a 4	!	!	!	!	!	!LO:LB:g=original	!
0E	Si-	00r	.	00r	.	00r	.
=156-	=156-	=156-	=156-	=156-	=156-	=156-	=156-
1E	-cut	.	.	.	.	.	.
1F	.	.	.	.	.	.	.
=157-	=157-	=157-	=157-	=157-	=157-	=157-	=157-
2E/	e-	00r	.	0B	Si-	00r	.
2.G\	-rat	.	.	.	.	.	.
4F\	.	.	.	.	.	.	.
1E\	.	.	.	.	.	.	.
=158-	=158-	=158-	=158-	=158-	=158-	=158-	=158-
.	.	.	.	1c	-cut	.	.
2D/	.	.	.	.	.	.	.
2E/	.	.	.	1c	.	.	.
2F\	.	.	.	.	.	.	.
=159-	=159-	=159-	=159-	=159-	=159-	=159-	=159-
2.G\	.	00r	.	2B/	e-	00r	.
.	.	.	.	2.d/	-rat	.	.
4F\	.	.	.	.	.	.	.
2D/	.	.	.	.	.	.	.
.	.	.	.	4c/	.	.	.
2E/	.	.	.	1B/	.	.	.
=160-	=160-	=160-	=160-	=160-	=160-	=160-	=160-
1F	.	.	.	.	.	.	.
.	.	.	.	2A/	.	.	.
2E/	.	.	.	2B/	.	.	.
2.A\	.	.	.	2c/	.	.	.
=161-	=161-	=161-	=161-	=161-	=161-	=161-	=161-
.	.	00r	.	2.d/	.	00r	.
4G\	.	.	.	.	.	.	.
2G\	.	.	.	.	.	.	.
.	.	.	.	4c/	.	.	.
2F\	.	.	.	2A/	.	.	.
1E\	.	.	.	2B/	.	.	.
=162-	=162-	=162-	=162-	=162-	=162-	=162-	=162-
.	.	.	.	1c	.	.	.
1A	.	.	.	.	.	.	.
.	.	.	.	1B	.	.	.
2G\	.	.	.	.	.	.	.
=163-	=163-	=163-	=163-	=163-	=163-	=163-	=163-
2A\	.	1r	.	2r	.	00r	.
2.c\	.	.	.	2.e\	ſi-	.	.
.	.	0A	Si-	.	.	.	.
4Bny\	.	.	.	4d\	-cut	.	.
2.A\	.	.	.	2.f\	e-	.	.
=164-	=164-	=164-	=164-	=164-	=164-	=164-	=164-
.	.	.	.	.	.	.	.
4G/	.	.	.	4e\	-rat	.	.
4F/	.	.	.	1e	.	.	.
4E/	.	.	.	.	.	.	.
1F	.	1A	-cut	.	.	.	.
.	.	.	.	2d/	.	.	.
=165-	=165-	=165-	=165-	=165-	=165-	=165-	=165-
1E	.	1B	e-	2.e\	.	1r	.
.	.	.	.	4d/	.	.	.
*	*	*custos:A	*	*	*	*	*
!	!	!LO:LB:g=original	!	!	!	!	!
1r	.	2A/	.	4c/	.	0e	Si-
.	.	.	.	4B/	.	.	.
*	*	*	*	*custos:A	*	*	*
!	!	!	!	!LO:LB:g=original	!	!	!
.	.	2.c\	-rat	2.A/	.	.	.
=166-	=166-	=166-	=166-	=166-	=166-	=166-	=166-
0r	.	.	.	.	.	.	.
.	.	4B/	.	4G/	.	.	.
.	.	1A	.	2A/	.	.	.
.	.	.	.	1E	.	1e	-cut
.	.	2G/	.	.	.	.	.
=167-	=167-	=167-	=167-	=167-	=167-	=167-	=167-
1r	.	2A/	.	00r	.	1f	.
.	.	2F/	.	.	.	.	.
*custos:E	*	*	*	*	*	*	*
!LO:LB:g=original	!	!	!	!	!	!	!
1E	in	2Gny/	.	.	.	2e/	e-
.	.	4E/	.	.	.	2.g/	-rat
.	.	4F/	.	.	.	.	.
=168-	=168-	=168-	=168-	=168-	=168-	=168-	=168-
2E/	prin-	4G/	.	.	.	.	.
.	.	4A/	.	.	.	4f/	.
2E/	-ci-	2.B/	.	.	.	1e	.
*lig	*	*	*	*	*	*	*
1F	-pi-	.	.	.	.	.	.
.	.	4A/	.	.	.	.	.
.	.	1A\	.	.	.	2d/	.
=169-	=169-	=169-	=169-	=169-	=169-	=169-	=169-
1E	.	.	.	2r	.	2e/	.
.	.	2G/	.	2e\	in	2b\	in
*Xlig	*	*	*	*	*	*	*
1AA	-o	1A	.	2e\	prin-	1cc	prin-
.	.	.	.	2e\	-ci-	.	.
=170-	=170-	=170-	=170-	=170-	=170-	=170-	=170-
1r	.	2r	.	1f	-pi-	2a/	-ci-
.	.	2A/	in	.	.	2.cc\	-pi-
1AA	et	2A/	prin-	0e	-o	.	.
.	.	.	.	.	.	4b\	-o
.	.	2A/	-ci-	.	.	1a\	.
=171-	=171-	=171-	=171-	=171-	=171-	=171-	=171-
2E/	nunc	1B	-pi-	.	.	.	.
2E/	.	.	.	.	.	2g/	.
1F	et	1A	-o	2r	.	1a	.
.	.	.	.	2A/	et	.	.
=172-	=172-	=172-	=172-	=172-	=172-	=172-	=172-
2E/	ſem-	1r	.	2e\	nu(n)c	0r	.
2A\	-per	.	.	2e\	et	.	.
4A\	.	1D	et	1f	ſem-	.	.
4G\	.	.	.	.	.	.	.
4A\	.	.	.	.	.	.	.
4B\	.	.	.	.	.	.	.
=173-	=173-	=173-	=173-	=173-	=173-	=173-	=173-
2c\	.	2A/	nu(n)c	2e\	-per	1r	.
2.A\	.	2A/	et	2c/	.	.	.
.	.	1B	ſem-	2d/	.	1d	in
4G\	.	.	.	.	.	.	.
1G\	.	.	.	2B/	.	.	.
=174-	=174-	=174-	=174-	=174-	=174-	=174-	=174-
.	.	2A/	-per	2c/	.	2a/	prin-
2F\	.	2.d\	.	2.A/	.	2a/	-ci-
1G	.	.	.	.	.	1b	-pi-
.	.	4c\	.	4G/	.	.	.
.	.	4d\	.	2G/	.	.	.
.	.	4e\	.	.	.	.	.
*	*	*custos:f	*	*	*	*	*
=175-	=175-	=175-	=175-	=175-	=175-	=175-	=175-
!	!	!LO:LB:g=original	!	!	!	!	!
2D/	et	2f\	.	2A/	.	1a	-o
2A\	nunc	1e	.	2c/	.	.	.
2G\	.	.	.	4B/	.	2r	.
.	.	.	.	4G/	.	.	.
2B\	et	1d\	.	1g\	.	2d/	et
=176-	=176-	=176-	=176-	=176-	=176-	=176-	=176-
1A	.	.	.	.	.	2a/	nu(n)c
.	.	2c\	.	2f\	.	2a/	et
2.G\	ſem-	1.d	.	2g\	.	1b	ſem-
.	.	.	.	2G/	et	.	.
4F\	.	.	.	.	.	.	.
=177-	=177-	=177-	=177-	=177-	=177-	=177-	=177-
2D/	.	.	.	2.A/	nu(n)c	2a/	.
*	*	*	*	*	*	*custos:cc	*
!	!	!	!	!	!	!LO:LB:g=original	!
1A	.	2c\	et	.	.	1cc	.
.	.	.	.	4B/	.	.	.
*	*	*	*	*custos:c	*	*	*
!	!	!	!	!LO:PB:g=original	!	!	!
.	.	2A/	.	2c/	.	.	.
2G\	.	1B\	nunc	2d/	.	4b\	.
.	.	.	.	.	.	4a\	.
*custos:E	*	*	*	*	*	*	*
=178-	=178-	=178-	=178-	=178-	=178-	=178-	=178-
!LO:LB:g=original	!	!	!	!	!	!	!
2E/	.	.	.	0e	et	2g\	.
1A	.	2c\	.	.	.	2a\	.
.	.	2A/	.	.	.	2cc\	.
2G\	.	2B/	et	.	.	2.b\	.
=179-	=179-	=179-	=179-	=179-	=179-	=179-	=179-
2F\	.	2c\	.	1f	ſem-	.	.
.	.	.	.	.	.	4a\	.
2D/	.	2d\	ſem-	.	.	1a	.
1E	.	1B	-per	1e	-per	.	.
.	.	.	.	.	.	2g/	.
=180-	=180-	=180-	=180-	=180-	=180-	=180-	=180-
0AA;	-per	0A\l;	.	0e;<	.	0a\l	-per
=181-	=181-	=181-	=181-	=181-	=181||-	=181||	=181||
0AA	Et	0A	Et	0c	Et	0e	Et
=182-	=182-	=182-	=182-	=182-	=182-	=182-	=182-
0AA	in	1A	in	0c	in	0e	in
.	.	0A	ſae-	.	.	.	.
=183-	=183-	=183-	=183-	=183-	=183-	=183-	=183-
1D	ſae-	.	.	1d	ſae-	1f	ſae-
1D	-cu-	1A	-cu-	1d	-cu-	1f	-cu-
=184-	=184-	=184-	=184-	=184-	=184-	=184-	=184-
0AA	-la	0A	-la	0c	-la	0e	-la
=185-	=185-	=185-	=185-	=185-	=185-	=185-	=185-
1r	.	1r	.	1r	.	1r	.
1AA	ſae-	0A	ſae-	1c	ſae-	1e	ſae-
=186-	=186-	=186-	=186-	=186-	=186-	=186-	=186-
1E	-cu-	.	.	1c	-cu-	0e	-cu-
1E	-lo-	1G	-cu-	1B	-lo-	.	.
=187-	=187-	=187-	=187-	=187-	=187-	=187-	=187-
1.AA	-ru(m)	1A	-lo-	2A/	-ru(m)	1e	-lo-
.	.	.	.	1c	A-	.	.
.	.	1.c	-ru(m)	.	.	0e	-ru(m)
2BB/	.	.	.	4B/	.	.	.
.	.	.	.	4A/	.	.	.
=188-	=188-	=188-	=188-	=188-	=188-	=188-	=188-
1C	.	.	.	1G	.	.	.
.	.	2B/	.	.	.	.	.
1E	.	1A	.	1d	.	1f	A-
=189-	=189-	=189-	=189-	=189-	=189-	=189-	=189-
1E	A-	1G	.	1B	.	2e/	.
.	.	.	.	.	.	2.g/	.
1C	-men	1E	A-	1c	.	.	.
.	.	.	.	.	.	4f/	.
.	.	.	.	.	.	1e/	.
=190-	=190-	=190-	=190-	=190-	=190-	=190-	=190-
0D	.	0F	.	0A	.	.	.
.	.	.	.	.	.	4d/	.
.	.	.	.	.	.	4c/	.
.	.	.	.	.	.	1d	-men
=191-	=191-	=191-	=191-	=191-	=191-	=191-	=191-
*	*	*Xtuplet	*	*lig	*	*Xtuplet	*
1.G	.	1%10E/l	-men	0B	.	1%10e\l	.
2F\	A-	.	.	.	.	.	.
=192-	=192-	=192-	=192-	=192-	=192-	=192-	=192-
2E\	.	.	.	0G	.	.	.
2D\	.	.	.	.	.	.	.
2C/	.	.	.	.	.	.	.
2BB/	.	.	.	.	.	.	.
*	*	*	*	*Xlig	*	*	*
=193-	=193-	=193-	=193-	=193-	=193-	=193-	=193-
1AA	.	.	.	1A	.	.	.
1GG	.	.	.	1B	.	.	.
=194-	=194-	=194-	=194-	=194-	=194-	=194-	=194-
0AA	-men	.	.	0c	.	.	.
=195-	=195-	=195-	=195-	=195-	=195-	=195-	=195-
0E\l	.	.	.	0B\l	-MEN	.	.
==	==	==	==	==	==	==	==
*-	*-	*-	*-	*-	*-	*-	*-
!!!system-decoration: [s1,s2,s3,s4]
!!!RDF**kern: i = editorial accidental
!!!RDF**kern: l = terminal long
!!!RDF**kern: > = above
!!!RDF**kern: < = below
!!!ENC: Katarzyna Serwa
!!!END: 2022-01-09
!!!ENC: Andrzej Gręziak
!!!END: 2022-01-08
